chassis/plates/ready/mirror-2-z.plate.svg

<?xml version="1.0" encoding="UTF-8" standalone="no"?>
<!-- Created with plate2svg written for http://psaw.osaa.dk -->

<svg
   xmlns:dc="http://purl.org/dc/elements/1.1/"
   xmlns:cc="http://creativecommons.org/ns#"
   xmlns:rdf="http://www.w3.org/1999/02/22-rdf-syntax-ns#"
   xmlns:svg="http://www.w3.org/2000/svg"
   xmlns="http://www.w3.org/2000/svg"
   xmlns:sodipodi="http://sodipodi.sourceforge.net/DTD/sodipodi-0.dtd"
   xmlns:inkscape="http://www.inkscape.org/namespaces/inkscape"
   width="1052.3622"
   height="744.09448"
   id="svg2"
   version="1.1"
   inkscape:version="0.48.2 r9819"
   sodipodi:docname="mirror-2-y.plate.svg">
  <defs
     id="defs4" />
  <sodipodi:namedview
     id="base"
     pagecolor="#ffffff"
     bordercolor="#666666"
     borderopacity="1.0"
     inkscape:pageopacity="0.0"
     inkscape:pageshadow="2"
     inkscape:zoom="2.8"
     inkscape:cx="620.24428"
     inkscape:cy="337.99579"
     inkscape:document-units="mm"
     inkscape:current-layer="layer1"
     showgrid="false"
     inkscape:window-width="1914"
     inkscape:window-height="1057"
     inkscape:window-x="1920"
     inkscape:window-y="0"
     inkscape:window-maximized="1"
     units="mm" />
  <metadata
     id="metadata7">
    <rdf:RDF>
      <cc:Work
         rdf:about="">
        <dc:format>image/svg+xml</dc:format>
        <dc:type
           rdf:resource="http://purl.org/dc/dcmitype/StillImage" />
        <dc:title></dc:title>
      </cc:Work>
    </rdf:RDF>
  </metadata>
  <g
     inkscape:label="Plate"
     inkscape:groupmode="layer"
     id="layer1">
    <path
       style="fill:#b9b9ff;fill-opacity:1;fill-rule:evenodd;stroke:#000000;stroke-width:0.35433072;stroke-linecap:butt;stroke-linejoin:miter;stroke-miterlimit:4;stroke-opacity:1;stroke-dasharray:none"
       d="M 444.15625 239.1875 C 442.19326 239.1875 440.625 240.75576 440.625 242.71875 L 440.625 501.375 C 440.625 503.33799 442.19326 504.90625 444.15625 504.90625 L 515.46875 504.90625 L 589.4375 431.03125 L 589.4375 242.71875 C 589.4375 240.75576 587.83799 239.1875 585.875 239.1875 L 444.15625 239.1875 z "
       id="platerect" />
  </g>
  <g
     inkscape:label="Holes"
     inkscape:groupmode="layer"
     id="layer2">
    <circle
       cx="486.673228346457"
       cy="469.488188976378"
       r="8.85826771653543"
       style="fill:#ffffff;fill-opacity:1;stroke:#000000;stroke-width:0.35433072;"
       id="circle9" />
    <circle
       cx="486.673228346457"
       cy="274.606299212598"
       r="8.85826771653543"
       style="fill:#ffffff;fill-opacity:1;stroke:#000000;stroke-width:0.35433072;"
       id="circle11" />
    <circle
       cx="564.625495700595"
       cy="426.612872175626"
       r="7.08661417322835"
       style="fill:#ffffff;fill-opacity:1;stroke:#000000;stroke-width:0.35433072;"
       id="circle13" />
    <circle
       cx="529.547732645861"
       cy="391.536734123586"
       r="7.08661417322835"
       style="fill:#ffffff;fill-opacity:1;stroke:#000000;stroke-width:0.35433072;"
       id="circle15" />
  </g>
  <g
     inkscape:label="Centers"
     inkscape:groupmode="layer"
     id="layer3">
    <line
       x1="482.244094488189"
       y1="469.488188976378"
       x2="491.102362204724"
       y2="469.488188976378"
       style="stroke:rgb(0,0,0);stroke-width:0.345"
       id="line18" />
    <line
       x1="486.673228346457"
       y1="465.05905511811"
       x2="486.673228346457"
       y2="473.917322834646"
       style="stroke:rgb(0,0,0);stroke-width:0.345"
       id="line20" />
    <line
       x1="482.244094488189"
       y1="274.606299212598"
       x2="491.102362204724"
       y2="274.606299212598"
       style="stroke:rgb(0,0,0);stroke-width:0.345"
       id="line22" />
    <line
       x1="486.673228346457"
       y1="270.177165354331"
       x2="486.673228346457"
       y2="279.035433070866"
       style="stroke:rgb(0,0,0);stroke-width:0.345"
       id="line24" />
    <line
       x1="561.082188613981"
       y1="426.612872175626"
       x2="568.16880278721"
       y2="426.612872175626"
       style="stroke:rgb(0,0,0);stroke-width:0.345"
       id="line26" />
    <line
       x1="564.625495700595"
       y1="423.069565089012"
       x2="564.625495700595"
       y2="430.15617926224"
       style="stroke:rgb(0,0,0);stroke-width:0.345"
       id="line28" />
    <line
       x1="526.004425559247"
       y1="391.536734123586"
       x2="533.091039732475"
       y2="391.536734123586"
       style="stroke:rgb(0,0,0);stroke-width:0.345"
       id="line30" />
    <line
       x1="529.547732645861"
       y1="387.993427036972"
       x2="529.547732645861"
       y2="395.0800412102"
       style="stroke:rgb(0,0,0);stroke-width:0.345"
       id="line32" />
  </g>
  <g
     inkscape:label="Measurements"
     inkscape:groupmode="layer"
     id="layer4">
    <line
       x1="589.429133858268"
       y1="522.637795275591"
       x2="589.429133858268"
       y2="540.354330708661"
       style="stroke:rgb(0,0,0);stroke-width:0.345"
       id="line35" />
    <text
       x="589.429133858268"
       y="558.070866141732"
       font-size="8.85826771653543"
       text-anchor="middle"
       id="text37">42</text>
    <line
       x1="564.625984251969"
       y1="522.637795275591"
       x2="564.625984251969"
       y2="540.354330708661"
       style="stroke:rgb(0,0,0);stroke-width:0.345"
       id="line39" />
    <text
       x="564.625984251969"
       y="558.070866141732"
       font-size="8.85826771653543"
       text-anchor="middle"
       id="text41">35</text>
    <text
       x="564.625984251969"
       y="575.787401574803"
       font-size="8.85826771653543"
       text-anchor="middle"
       id="text43">Ø4</text>
    <line
       x1="529.547244094488"
       y1="522.637795275591"
       x2="529.547244094488"
       y2="540.354330708661"
       style="stroke:rgb(0,0,0);stroke-width:0.345"
       id="line45" />
    <text
       x="529.547244094488"
       y="558.070866141732"
       font-size="8.85826771653543"
       text-anchor="middle"
       id="text47">25.1</text>
    <text
       x="529.547244094488"
       y="575.787401574803"
       font-size="8.85826771653543"
       text-anchor="middle"
       id="text49">Ø4</text>
    <line
       x1="486.673228346457"
       y1="522.637795275591"
       x2="486.673228346457"
       y2="540.354330708661"
       style="stroke:rgb(0,0,0);stroke-width:0.345"
       id="line51" />
    <text
       x="486.673228346457"
       y="558.070866141732"
       font-size="8.85826771653543"
       text-anchor="middle"
       id="text53">13</text>
    <text
       x="486.673228346457"
       y="575.787401574803"
       font-size="8.85826771653543"
       text-anchor="middle"
       id="text55">Ø5</text>
    <line
       x1="440.610236220472"
       y1="522.637795275591"
       x2="440.610236220472"
       y2="540.354330708661"
       style="stroke:rgb(0,0,0);stroke-width:0.345"
       id="line57" />
    <text
       x="440.610236220472"
       y="558.070866141732"
       font-size="8.85826771653543"
       text-anchor="middle"
       id="text59">0</text>
    <line
       x1="422.893700787402"
       y1="239.173228346457"
       x2="405.177165354331"
       y2="239.173228346457"
       style="stroke:rgb(0,0,0);stroke-width:0.345"
       id="line61" />
    <text
       x="387.46062992126"
       y="239.173228346457"
       font-size="8.85826771653543"
       text-anchor="end"
       id="text63">75</text>
    <line
       x1="422.893700787402"
       y1="274.606299212598"
       x2="405.177165354331"
       y2="274.606299212598"
       style="stroke:rgb(0,0,0);stroke-width:0.345"
       id="line65" />
    <text
       x="387.46062992126"
       y="274.606299212598"
       font-size="8.85826771653543"
       text-anchor="end"
       id="text67">65 Ø5</text>
    <line
       x1="607.145669291339"
       y1="391.535433070866"
       x2="624.862204724409"
       y2="391.535433070866"
       style="stroke:rgb(0,0,0);stroke-width:0.345"
       id="line69" />
    <text
       x="642.57874015748"
       y="391.535433070866"
       font-size="8.85826771653543"
       text-anchor="start"
       id="text71">32 Ø4</text>
    <line
       x1="607.145669291339"
       y1="426.614173228346"
       x2="624.862204724409"
       y2="426.614173228346"
       style="stroke:rgb(0,0,0);stroke-width:0.345"
       id="line73" />
    <text
       x="642.57874015748"
       y="426.614173228346"
       font-size="8.85826771653543"
       text-anchor="start"
       id="text75">22.1 Ø4</text>
    <line
       x1="422.893700787402"
       y1="469.488188976378"
       x2="405.177165354331"
       y2="469.488188976378"
       style="stroke:rgb(0,0,0);stroke-width:0.345"
       id="line77" />
    <text
       x="387.46062992126"
       y="469.488188976378"
       font-size="8.85826771653543"
       text-anchor="end"
       id="text79">10 Ø5</text>
    <line
       x1="422.893700787402"
       y1="504.92125984252"
       x2="405.177165354331"
       y2="504.92125984252"
       style="stroke:rgb(0,0,0);stroke-width:0.345"
       id="line81" />
    <text
       x="387.46062992126"
       y="504.92125984252"
       font-size="8.85826771653543"
       text-anchor="end"
       id="text83">0</text>
  </g>
  <g
     inkscape:label="Annotations"
     inkscape:groupmode="layer"
     id="layer5">
    <path
       d="M 465.656615118461,350.197522313119 L 520.77626062881,295.075323227109 L 661.087312847747,435.379875435269 L 605.967667337398,490.502074521279 Z"
       stroke-dasharray="10,10,2.5,10"
       style="stroke:#000000;stroke-width:0.35433072;fill:none"
       id="path86" />
    <path
       d="M 605.967667337398,490.502074521279 L 554.606179475482,541.865941851426 L 517.022861916839,504.284365367097 L 568.384349778754,452.920498036951 "
       stroke-dasharray="10,10,2.5,10"
       style="stroke:#000000;stroke-width:0.35433072;fill:none"
       id="path88" />
    <path
       d="M 544.579028415951,318.87698833385 L 559.611659009683,303.843661310392 L 652.317175654337,396.54488330507 L 637.284545060606,411.578210328527 "
       stroke-dasharray="10,10,2.5,10"
       style="stroke:#000000;stroke-width:0.35433072;fill:none"
       id="path90" />
  </g>
</svg>

<?xml version="1.0" encoding="UTF-8" standalone="no"?>
<!-- Created with plate2svg written for http://psaw.osaa.dk -->

<svg
   xmlns:dc="http://purl.org/dc/elements/1.1/"
   xmlns:cc="http://creativecommons.org/ns#"
   xmlns:rdf="http://www.w3.org/1999/02/22-rdf-syntax-ns#"
   xmlns:svg="http://www.w3.org/2000/svg"
   xmlns="http://www.w3.org/2000/svg"
   xmlns:sodipodi="http://sodipodi.sourceforge.net/DTD/sodipodi-0.dtd"
   xmlns:inkscape="http://www.inkscape.org/namespaces/inkscape"
   width="1052.3622"
   height="744.09448"
   id="svg2"
   version="1.1"
   inkscape:version="0.48.2 r9819"
   sodipodi:docname="mirror-2-z.plate.svg">
  <defs
     id="defs4" />
  <sodipodi:namedview
     id="base"
     pagecolor="#ffffff"
     bordercolor="#666666"
     borderopacity="1.0"
     inkscape:pageopacity="0.0"
     inkscape:pageshadow="2"
     inkscape:zoom="0.98994949"
     inkscape:cx="260.81869"
     inkscape:cy="451.08583"
     inkscape:document-units="mm"
     inkscape:current-layer="layer5"
     showgrid="false"
     inkscape:window-width="1230"
     inkscape:window-height="773"
     inkscape:window-x="44"
     inkscape:window-y="0"
     inkscape:window-maximized="1"
     units="mm" />
  <metadata
     id="metadata7">
    <rdf:RDF>
      <cc:Work
         rdf:about="">
        <dc:format>image/svg+xml</dc:format>
        <dc:type
           rdf:resource="http://purl.org/dc/dcmitype/StillImage" />
        <dc:title />
      </cc:Work>
    </rdf:RDF>
  </metadata>
  <g
     inkscape:label="Plate"
     inkscape:groupmode="layer"
     id="layer1">
    <path
       style="fill:#b9b9ff;fill-opacity:1;fill-rule:evenodd;stroke:#000000;stroke-width:0.35433072;stroke-linecap:butt;stroke-linejoin:miter;stroke-miterlimit:4;stroke-opacity:1;stroke-dasharray:none"
       d="M 444.15625 239.1875 C 442.19326 239.1875 440.625 240.75576 440.625 242.71875 L 440.625 501.375 C 440.625 503.33799 442.19326 504.90625 444.15625 504.90625 L 515.46875 504.90625 L 589.4375 431.03125 L 589.4375 242.71875 C 589.4375 240.75576 587.83799 239.1875 585.875 239.1875 L 444.15625 239.1875 z "
       id="platerect" />
  </g>
  <g
     inkscape:label="Holes"
     inkscape:groupmode="layer"
     id="layer2">
    <circle
       cx="486.673228346457"
       cy="469.488188976378"
       r="8.85826771653543"
       style="fill:#ffffff;fill-opacity:1;stroke:#000000;stroke-width:0.35433072;"
       id="circle9" />
    <circle
       cx="486.673228346457"
       cy="274.606299212598"
       r="8.85826771653543"
       style="fill:#ffffff;fill-opacity:1;stroke:#000000;stroke-width:0.35433072;"
       id="circle11" />
    <circle
       cx="564.625495700595"
       cy="426.612872175626"
       r="7.08661417322835"
       style="fill:#ffffff;fill-opacity:1;stroke:#000000;stroke-width:0.35433072;"
       id="circle13" />
    <circle
       cx="529.547732645861"
       cy="391.536734123586"
       r="7.08661417322835"
       style="fill:#ffffff;fill-opacity:1;stroke:#000000;stroke-width:0.35433072;"
       id="circle15" />
  </g>
  <g
     inkscape:label="Centers"
     inkscape:groupmode="layer"
     id="layer3">
    <line
       x1="482.244094488189"
       y1="469.488188976378"
       x2="491.102362204724"
       y2="469.488188976378"
       style="stroke:rgb(0,0,0);stroke-width:0.345"
       id="line18" />
    <line
       x1="486.673228346457"
       y1="465.05905511811"
       x2="486.673228346457"
       y2="473.917322834646"
       style="stroke:rgb(0,0,0);stroke-width:0.345"
       id="line20" />
    <line
       x1="482.244094488189"
       y1="274.606299212598"
       x2="491.102362204724"
       y2="274.606299212598"
       style="stroke:rgb(0,0,0);stroke-width:0.345"
       id="line22" />
    <line
       x1="486.673228346457"
       y1="270.177165354331"
       x2="486.673228346457"
       y2="279.035433070866"
       style="stroke:rgb(0,0,0);stroke-width:0.345"
       id="line24" />
    <line
       x1="561.082188613981"
       y1="426.612872175626"
       x2="568.16880278721"
       y2="426.612872175626"
       style="stroke:rgb(0,0,0);stroke-width:0.345"
       id="line26" />
    <line
       x1="564.625495700595"
       y1="423.069565089012"
       x2="564.625495700595"
       y2="430.15617926224"
       style="stroke:rgb(0,0,0);stroke-width:0.345"
       id="line28" />
    <line
       x1="526.004425559247"
       y1="391.536734123586"
       x2="533.091039732475"
       y2="391.536734123586"
       style="stroke:rgb(0,0,0);stroke-width:0.345"
       id="line30" />
    <line
       x1="529.547732645861"
       y1="387.993427036972"
       x2="529.547732645861"
       y2="395.0800412102"
       style="stroke:rgb(0,0,0);stroke-width:0.345"
       id="line32" />
  </g>
  <g
     inkscape:label="Measurements"
     inkscape:groupmode="layer"
     id="layer4">
    <line
       x1="589.429133858268"
       y1="522.637795275591"
       x2="589.429133858268"
       y2="540.354330708661"
       style="stroke:rgb(0,0,0);stroke-width:0.345"
       id="line35" />
    <text
       x="589.429133858268"
       y="558.070866141732"
       font-size="8.85826771653543"
       text-anchor="middle"
       id="text37">42</text>
    <line
       x1="564.625984251969"
       y1="522.637795275591"
       x2="564.625984251969"
       y2="540.354330708661"
       style="stroke:rgb(0,0,0);stroke-width:0.345"
       id="line39" />
    <text
       x="564.625984251969"
       y="558.070866141732"
       font-size="8.85826771653543"
       text-anchor="middle"
       id="text41">35</text>
    <text
       x="564.625984251969"
       y="575.787401574803"
       font-size="8.85826771653543"
       text-anchor="middle"
       id="text43">Ø4</text>
    <line
       x1="529.547244094488"
       y1="522.637795275591"
       x2="529.547244094488"
       y2="540.354330708661"
       style="stroke:rgb(0,0,0);stroke-width:0.345"
       id="line45" />
    <text
       x="529.547244094488"
       y="558.070866141732"
       font-size="8.85826771653543"
       text-anchor="middle"
       id="text47">25.1</text>
    <text
       x="529.547244094488"
       y="575.787401574803"
       font-size="8.85826771653543"
       text-anchor="middle"
       id="text49">Ø4</text>
    <line
       x1="486.673228346457"
       y1="522.637795275591"
       x2="486.673228346457"
       y2="540.354330708661"
       style="stroke:rgb(0,0,0);stroke-width:0.345"
       id="line51" />
    <text
       x="486.673228346457"
       y="558.070866141732"
       font-size="8.85826771653543"
       text-anchor="middle"
       id="text53">13</text>
    <text
       x="486.673228346457"
       y="575.787401574803"
       font-size="8.85826771653543"
       text-anchor="middle"
       id="text55">Ø5</text>
    <line
       x1="440.610236220472"
       y1="522.637795275591"
       x2="440.610236220472"
       y2="540.354330708661"
       style="stroke:rgb(0,0,0);stroke-width:0.345"
       id="line57" />
    <text
       x="440.610236220472"
       y="558.070866141732"
       font-size="8.85826771653543"
       text-anchor="middle"
       id="text59">0</text>
    <line
       x1="422.893700787402"
       y1="239.173228346457"
       x2="405.177165354331"
       y2="239.173228346457"
       style="stroke:rgb(0,0,0);stroke-width:0.345"
       id="line61" />
    <text
       x="387.46062992126"
       y="239.173228346457"
       font-size="8.85826771653543"
       text-anchor="end"
       id="text63">75</text>
    <line
       x1="422.893700787402"
       y1="274.606299212598"
       x2="405.177165354331"
       y2="274.606299212598"
       style="stroke:rgb(0,0,0);stroke-width:0.345"
       id="line65" />
    <text
       x="387.46062992126"
       y="274.606299212598"
       font-size="8.85826771653543"
       text-anchor="end"
       id="text67">65 Ø5</text>
    <line
       x1="607.145669291339"
       y1="391.535433070866"
       x2="624.862204724409"
       y2="391.535433070866"
       style="stroke:rgb(0,0,0);stroke-width:0.345"
       id="line69" />
    <text
       x="642.57874015748"
       y="391.535433070866"
       font-size="8.85826771653543"
       text-anchor="start"
       id="text71">32 Ø4</text>
    <line
       x1="607.145669291339"
       y1="426.614173228346"
       x2="624.862204724409"
       y2="426.614173228346"
       style="stroke:rgb(0,0,0);stroke-width:0.345"
       id="line73" />
    <text
       x="642.57874015748"
       y="426.614173228346"
       font-size="8.85826771653543"
       text-anchor="start"
       id="text75">22.1 Ø4</text>
    <line
       x1="422.893700787402"
       y1="469.488188976378"
       x2="405.177165354331"
       y2="469.488188976378"
       style="stroke:rgb(0,0,0);stroke-width:0.345"
       id="line77" />
    <text
       x="387.46062992126"
       y="469.488188976378"
       font-size="8.85826771653543"
       text-anchor="end"
       id="text79">10 Ø5</text>
    <line
       x1="422.893700787402"
       y1="504.92125984252"
       x2="405.177165354331"
       y2="504.92125984252"
       style="stroke:rgb(0,0,0);stroke-width:0.345"
       id="line81" />
    <text
       x="387.46062992126"
       y="504.92125984252"
       font-size="8.85826771653543"
       text-anchor="end"
       id="text83">0</text>
  </g>
  <g
     inkscape:label="Annotations"
     inkscape:groupmode="layer"
     id="layer5">
    <path
       d="m 465.65662,350.19752 55.11964,-55.1222 140.31105,140.30456 -55.11964,55.12219 z"
       style="fill:none;stroke:#000000;stroke-width:0.35433072;stroke-dasharray:10, 10, 2.5, 10"
       id="path86"
       inkscape:connector-curvature="0" />
    <path
       d="m 605.96767,490.50207 -51.36149,51.36387 -37.58332,-37.58157 51.36149,-51.36387"
       style="fill:none;stroke:#000000;stroke-width:0.35433072;stroke-dasharray:10, 10, 2.5, 10"
       id="path88"
       inkscape:connector-curvature="0" />
    <path
       d="m 544.57903,318.87699 15.03263,-15.03333 92.70552,92.70122 -15.03263,15.03333"
       style="fill:none;stroke:#000000;stroke-width:0.35433072;stroke-dasharray:10, 10, 2.5, 10"
       id="path90"
       inkscape:connector-curvature="0" />
    <text
       xml:space="preserve"
       style="font-size:40px;font-style:normal;font-weight:normal;line-height:125%;letter-spacing:0px;word-spacing:0px;fill:#000000;fill-opacity:1;stroke:none;font-family:Sans"
       x="30.304577"
       y="44.058769"
       id="text3027"
       sodipodi:linespacing="125%"><tspan
         sodipodi:role="line"
         id="tspan3029"
         x="30.304577"
         y="44.058769">1x</tspan></text>
  </g>
</svg>
